X: 1
T: le Releveur
C: Richard For\^et
O: Qu\'ebec
R: reel
Z: 2016 John Chambers <jc:trillian.mit.edu>
S: Portland Collection v.1 p.164
M: C|
L: 1/8
K: Em	% and G
|:\
"Em"BcBG EFGA | BcBG "D"A4 |\
"D"DEFG ABAF | "G"GABc "D"d4 |
"Em"BcBG EFGA | BcBG "D"A4 |\
"D"DEFG ABAF | "Bm"G2FG "Em"E4 :|
|:\
"G"G,2 (3B,A,G, "D"A,B,CA, | "G"B,DGB d2dB |\
"C"ce"(D7)"Ac "G"BAGB | "A(m)"AGFE "D"DCB,A, |
"G"G,2 (3B,A,G, "D"A,B,CA, | "G"B,DGB d2dB |\
"C"ce"(D7)"Ac "G"BAGB | "D7"AGFA "G"G4 :|
